components/icon/svg/24/navigation_external-link.svg

<?xml version="1.0" encoding="UTF-8"?>
<svg width="24px" height="24px" viewBox="0 0 24 24" version="1.1" xmlns="http://www.w3.org/2000/svg" xmlns:xlink="http://www.w3.org/1999/xlink">
    <!-- Generator: Sketch 64 (93537) - https://sketch.com -->
    <title>ic-db_navigation_external-link_24</title>
    <desc>Created with Sketch.</desc>
    <g id="Symbols" stroke="none" stroke-width="1" fill="none" fill-rule="evenodd">
        <g id="24dp-Icon/Navigation/External-Link" fill="#282D37">
            <path d="M2,18 C2,19.6562 3.3438,21 5,21 L9,21 C9.5625,21 10,20.5625 10,20 C10,19.4375 9.5625,19 9,19 L5,19 C4.4375,19 4,18.5625 4,18 L4,6 C4,5.4375 4.4375,5 5,5 L9,5 C9.5625,5 10,4.5625 10,4 C10,3.4375 9.5625,3 9,3 L5,3 C3.3438,3 2,4.3438 2,6 L2,18 Z M8,12 C8,12.5312 8.4375,13 9,13 L18.5938,13 L16.3125,15.2812 C16.125,15.4688 16.0312,15.75 16.0312,16 C16.0312,16.5625 16.4688,17 17,17 C17.25,17 17.5312,16.875 17.7188,16.6875 L21.7188,12.7188 C21.9062,12.5312 22,12.25 22,12 C22,11.75 21.9062,11.4688 21.7188,11.2812 L17.7188,7.3125 C17.5312,7.0938 17.25,7 17.0312,7 C16.7812,7 16.5,7.0938 16.3125,7.3125 C16.125,7.5 16.0312,7.75 16.0312,8 C16.0312,8.25 16.125,8.5 16.3125,8.7188 L18.5938,11 L9,11 C8.4375,11 8,11.4375 8,12 Z" id="🎨-Color"></path>
        </g>
    </g>
</svg>

<svg width="24" height="24" xmlns="http://www.w3.org/2000/svg"><path d="M2 18a3 3 0 003 3h4c.563 0 1-.438 1-1 0-.563-.438-1-1-1H5c-.563 0-1-.438-1-1V6c0-.563.438-1 1-1h4c.563 0 1-.438 1-1 0-.563-.438-1-1-1H5a3 3 0 00-3 3v12zm6-6c0 .531.438 1 1 1h9.594l-2.282 2.281a1.043 1.043 0 00-.28.719c0 .563.437 1 .968 1 .25 0 .531-.125.719-.313l4-3.968c.187-.188.281-.469.281-.719s-.094-.531-.281-.719l-4-3.969a.95.95 0 00-1.406 0A.97.97 0 0016.03 8c0 .25.094.5.282.719L18.593 11H9c-.563 0-1 .438-1 1z" fill="#282D37" fill-rule="evenodd"/></svg>
